!!!!SEGMENT: Wil2009-Dominus_regit_me.krn
!!!id: Wil2009
!!!AGN: Motet
!!!SCT: Zenck (1950)
!!!voices: 4
!!!COM: Adrian Willaert
!!!OTL: Dominus regit me
**kern	**kern	**kern	**kern
*part4	*part3	*part2	*part1
*staff4	*staff3	*staff2	*staff1
*I"Bassus	*I"Tenor	*I"Altus	*I"Superius
*I'B	*I'T	*I'A	*I'S
*clefF4	*clefF4	*clefGv2	*clefG2
*k[b-]	*k[b-]	*k[b-]	*k[b-]
*F:	*F:	*F:	*F:
*M2/1	*M2/1	*M2/1	*M2/1
*met(C|)	*met(C|)	*met(C|)	*met(C|)
!!section: Prima pars: Dominus regit me
!!!OMD: Prima pars: Dominus regit me
=1	=1	=1	=1
0r	1r	1.F	0r
.	[1c	.	.
.	.	2F	.
=2	=2	=2	=2
1.F	1c]	1A	0r
.	1A	[1c	.
2F	.	.	.
=3	=3	=3	=3
1D	0F	2c]	1r
.	.	4B-y	.
.	.	4A	.
1D	.	1B-y	[1f
=4	=4	=4	=4
0C	1G	1c	1f]
.	1G	[1c	1e
=5	=5	=5	=5
0F	0A	1c]	0c
.	.	1A	.
=6	=6	=6	=6
1D	0r	1F	0d
1BB-y	.	[1G	.
=7	=7	=7	=7
0C	0c	2G]	0e
.	.	2A	.
.	.	1G	.
=8	=8	=8	=8
0D	1A	2.F	1d
.	.	4G	.
.	1F	2.A	[1f
.	.	4B-y	.
=9	=9	=9	=9
0C	0G	1c	2f]
.	.	.	4e
.	.	.	4d
.	.	1r	1e
=10	=10	=10	=10
1r	0A	1F	1c
1FF	.	[1c	1f
=11	=11	=11	=11
1.C	0G	2c]	1.e
.	.	2c	.
.	.	[1c	.
2C	.	.	2e
=12	=12	=12	=12
1AA	1r	1c]	1e
1FF	1C	1A	1f
=13	=13	=13	=13
1GG	1.G	1B-y	1d
1GG	.	1B-y	1d
.	2G	.	.
=14	=14	=14	=14
0AA	1E	2A	2.c
.	.	2.c	.
.	.	.	4d
.	1C	.	2e
.	.	4B-y	.
.	.	4A	[2f
.	.	4G	.
=15	=15	=15	=15
0BB-y	1D	2.F	4f]
.	.	.	4e
.	.	.	4d
.	.	4E	4c
.	1D	2F	1d
.	.	2G	.
=16	=16	=16	=16
0AA	0E	[0A	[0c
=17	=17	=17	=17
1r	0F	0A]	1c]
1FF	.	.	1r
=18	=18	=18	=18
1.C	0E	1r	1c
.	.	1G	[1g
2C	.	.	.
=19	=19	=19	=19
1BB-y	1r	1.d	2g]
.	.	.	2g
1BB-y	1D	.	1f
.	.	2d	.
=20	=20	=20	=20
0AA	1.A	1c	1f
.	.	1c	[1e
.	2A	.	.
=21	=21	=21	=21
1r	1G	1B-y	2e]
.	.	.	2d
1C	1G	1c	1e
=22	=22	=22	=22
2D	1.F	2A	1f
1BB-y	.	1d	.
.	.	.	2.d
4AA	2G	4c	.
4GG	.	4B-y	4e
=23	=23	=23	=23
0FF	2.A	2.c	4f
.	.	.	4g
.	.	.	1a
.	4B-y	4B-y	.
.	[1c	4A	.
.	.	4G	.
.	.	[2A	4g
.	.	.	4f
=24	=24	=24	=24
2.AA	2c]	2A]	2.e
.	4B-y	4G	.
4BB-y	4A	4F	4d
2C	2G	2E	2e
2BB-y	[2B-y	2F	[2d
=25	=25	=25	=25
2GG	2B-]	2G	4d]
.	.	.	4e
2.D	2A	2F	1f
.	2.F	2.A	.
4E	.	.	.
[2F	.	.	4e
.	4G	4B-y	4d
=26	=26	=26	=26
2F]	2A	0c	2c
4E	2F	.	1f
4D	.	.	.
1C	1G	.	.
.	.	.	2e
=27	=27	=27	=27
2r	0F	1r	[0f
1BB-y	.	.	.
.	.	1d	.
4AA	.	.	.
4GG	.	.	.
=28	=28	=28	=28
2AA	1r	2c	1f]
1BB-y	.	1d	.
.	1F	.	2.d
4AA	.	4c	.
4GG	.	4B-y	4e
=29	=29	=29	=29
1FF	1A	2c	1.f
.	.	1d	.
1r	1B-y	.	.
.	.	4c	4e
.	.	4B-y	4d
=30	=30	=30	=30
1r	1c	2.A	0e
.	.	4B-y	.
1C	2r	1G	.
.	2c	.	.
=31	=31	=31	=31
1D	2F	0r	0r
.	2A	.	.
1E	1G	.	.
=32	=32	=32	=32
1F	2F	2r	1r
.	1c	2F	.
2r	.	1A	2r
2F	4B-y	.	2c
.	4A	.	.
=33	=33	=33	=33
2BB-y	2G	1B-y	1d
2D	2F	.	.
1C	1G	1c	1e
=34	=34	=34	=34
1BB-y	0B-y	2r	1f
.	.	2d	.
1r	.	2G	2r
.	.	2B-y	2g
=35	=35	=35	=35
0r	1r	4A	2c
.	.	4F	.
.	.	1c	2e
.	[1G	.	1d
.	.	2Bni	.
=36	=36	=36	=36
0C	2G]	1c	2c
.	2C	.	1g
.	1G	[1c	.
.	.	.	2e
=37	=37	=37	=37
1FF	1A	2c]	1f
.	.	2c	.
1C	2G	1c	2g
.	[2c	.	[2a
=38	=38	=38	=38
1D	2c]	1F	2a]
.	2Bni	.	4g
.	.	.	4f
[1C	[1c	2.G	2.e
.	.	4F	4d
=39	=39	=39	=39
1C]	1c]	2G	1e
.	.	2A	.
[1BB-y	1r	[1B-y	[1d
=40	=40	=40	=40
2BB-]	1.F	1B-]	1d_
2BB-y	.	.	.
1BB-y	.	1r	1d_
.	2F	.	.
=41	=41	=41	=41
1D	2F	0r	1d]
.	1A	.	.
[1C	.	.	1r
.	2G	.	.
=42	=42	=42	=42
2C]	1c	0r	0r
4BB-y	.	.	.
4AA	.	.	.
1GG	2.B-y	.	.
.	4A	.	.
=43	=43	=43	=43
1C	4G	0r	0r
.	4F	.	.
.	1G	.	.
[1BB-y	.	.	.
.	4F	.	.
.	4E	.	.
=44	=44	=44	=44
2BB-]	2D	0r	0r
4AA	2.G	.	.
4GG	.	.	.
2AA	.	.	.
.	4F	.	.
2BB-y	[2F	.	.
=45	=45	=45	=45
1GG	2F]	1r	0r
.	2E	.	.
1FF	2.F	[1c	.
.	4G	.	.
=46	=46	=46	=46
2r	4A	2c]	1.f
.	4B-y	.	.
2.FF	2.A	2c	.
.	.	1c	.
4GG	4G	.	.
2AA	4F	.	2f
.	4E	.	.
=47	=47	=47	=47
1BB-y	2.D	1d	1f
.	4E	.	.
1FF	1F	[1c	1a
=48	=48	=48	=48
0r	0C	2c]	1.g
.	.	4B-y	.
.	.	4A	.
.	.	2G	.
.	.	2c	4f
.	.	.	4e
=49	=49	=49	=49
1r	0r	2B-y	1d
.	.	2.G	.
1GG	.	.	1g
.	.	4A	.
.	.	4B-y	.
.	.	4c	.
=50	=50	=50	=50
1.BB-y	0r	4d	1.f
.	.	4e	.
.	.	1d	.
2BB-y	.	4c	4e
.	.	4B-y	4d
=51	=51	=51	=51
1AA	1C	4c	2e
.	.	4B-y	.
.	.	4A	2f
.	.	4G	.
1BB-y	[1F	2F	1d
.	.	[2B-y	.
=52	=52	=52	=52
1FF	2F]	4B-]	0c
.	.	4A	.
.	2F	2A	.
1C	1E	2.G	.
.	.	4F	.
=53	=53	=53	=53
1BB-y	1F	1D	0r
2AA	1C	1r	.
[2FF	.	.	.
=54	=54	=54	=54
4FF]	1F	2r	0r
4GG	.	.	.
4AA	.	1c	.
4BB-y	.	.	.
2C	1E	.	.
2AA	.	2c	.
=55	=55	=55	=55
4BB-y	2D	1d	0r
4C	.	.	.
4D	2.F	.	.
4E	.	.	.
2.F	.	2.c	.
.	4G	.	.
.	4A	.	.
4E	4B-y	4d	.
=56	=56	=56	=56
2C	2c	2e	2r
2D	2A	2f	1f
1BB-y	2.B-y	1d	.
.	.	.	2g
.	4A	.	.
=57	=57	=57	=57
0r	1F	1.c	1a
.	1r	.	2.g
.	.	4B-y	.
.	.	4A	4a
=58	=58	=58	=58
0r	0r	2G	2b-y
.	.	2.A	2cc
.	.	.	1a
.	.	4F	.
.	.	[2f	.
=59	=59	=59	=59
0r	1r	2f]	0g
.	.	4e	.
.	.	4d	.
.	[1c	1e	.
=60	=60	=60	=60
1C	1c]	2r	2r
.	.	1e	1g
1C	1c	.	.
.	.	2e	2g
=61	=61	=61	=61
0F	0c	0f	0a
=62	=62	=62	=62
1.D	1.d	1.f	1.a
2D	2d	2f	2a
=63	=63	=63	=63
1BB-y	1d	1f	1b-y
1BB-y	1d	1f	1b-y
=64	=64	=64	=64
1C	1c	1e	1g
1GG	1B-y	1d	1g
=65	=65	=65	=65
1D	1.A	1.d	1.f
1AA	.	.	.
.	2A	2c	2e
=66	=66	=66	=66
1BB-y	1F	1B-y	1d
[1C	[1E	[1G	[1c
=67	=67	=67	=67
1C]	1E]	1G]	1c]
1FF	1F	1A	1c
=68	=68	=68	=68
0GG	0D	0G	0B-y
=69	=69	=69	=69
0AA	0C	0E	[0A
=70	=70	=70	=70
1.FF	1.C	1r	0A]
.	.	[1F	.
2FF	2C	.	.
=71	=71	=71	=71
1BB-y	1D	2F]	0r
.	.	2D	.
1AA	1C	2E	.
.	.	2F	.
=72	=72	=72	=72
0GG	1D	2G	0r
.	.	1F	.
.	1BB-y	.	.
.	.	2E	.
=73	=73	=73	=73
2FF	0C	1F	1r
1FF	.	.	.
.	.	[1A	[1c
2FF	.	.	.
=74	=74	=74	=74
2.F	2r	2A]	2c]
.	1A	2F	2c
4E	.	.	.
1D	.	2.A	1f
.	2F	.	.
.	.	4B-y	.
=75	=75	=75	=75
1C	2G	2c	1e
.	2A	2C	.
1D	2B-y	[1F	1d
.	[2A	.	.
=76	=76	=76	=76
1BB-y	2A]	2F]	1d
.	2G	4E	.
.	.	4D	.
1AA	1A	2F	[1c
.	.	2E	.
=77	=77	=77	=77
1r	2r	1A	1c]
.	1F	.	.
[1D	.	1A	2r
.	2F	.	[2f
=78	=78	=78	=78
2D]	1B-y	2F	2f]
2BB-y	.	1G	2d
2C	1A	.	2e
2D	.	2F	2f
=79	=79	=79	=79
1BB-y	1G	2D	2g
.	.	2d	1f
1C	1G	1c	.
.	.	.	2e
=80	=80	=80	=80
0FF	2.F	1r	2f
.	.	.	1a
.	4E	.	.
.	4F	[1c	.
.	4G	.	.
.	[2A	.	4g
.	.	.	4f
=81	=81	=81	=81
0r	2A]	2c]	2e
.	4G	2A	2f
.	4F	.	.
.	1G	1B-y	1d
=82	=82	=82	=82
1.F	0r	1A	1c
.	.	1c	1r
2C	.	.	.
=83	=83	=83	=83
1E-X	0r	2B-y	0r
.	.	2c	.
1D	.	2F	.
.	.	[2A	.
=84	=84	=84	=84
1F	1.c	2A]	0r
.	.	4G	.
.	.	4F	.
2E	.	2G	.
2F	2A	2A	.
=85	=85	=85	=85
2BB-y	1B-y	0F	0r
2.D	.	.	.
.	1A	.	.
4E	.	.	.
4F	.	.	.
4D	.	.	.
=86	=86	=86	=86
2E	1c	1r	0r
2F	.	.	.
2BB-y	2B-y	2.F	.
[2F	2c	.	.
.	.	4G	.
=87	=87	=87	=87
2F]	2F	4A	1f
.	.	4B-y	.
4E	1A	1c	.
4D	.	.	.
2C	.	.	2e
2D	4G	4B-y	2f
.	4F	4A	.
=88	=88	=88	=88
2GG	2G	2B-y	2.d
2.D	2F	2A	.
.	.	.	4e
.	2D	2F	[1f
4C	.	.	.
4BB-y	[2d	[2B-y	.
4AA	.	.	.
=89	=89	=89	=89
2BB-y	2d]	4B-]	2f]
.	.	4A	.
2C	1c	4G	2e
.	.	4F	.
1GG	.	1G	1d
.	2Bni	.	.
=90	=90	=90	=90
0C	0c	2r	1e
.	.	2G	.
.	.	1G	2r
.	.	.	2e
=91	=91	=91	=91
0r	1A	1c	1e
.	1F	[1c	1a
=92	=92	=92	=92
1r	1r	2c]	1.g
.	.	2c	.
1GG	2r	2.B-y	.
.	2D	.	2g
.	.	4c	.
=93	=93	=93	=93
1GG	1D	2d	2.g
.	.	1B-y	.
.	.	.	4f
1C	1E	.	2e
.	.	2A	2e
=94	=94	=94	=94
1.BB-y	1G	0B-y	1d
.	2F	.	2r
2BB-y	[2D	.	2f
=95	=95	=95	=95
2.BB-y	4D]	2r	1f
.	4E	.	.
.	1F	2B-y	.
4AA	.	.	.
2GG	.	1B-y	1b-y
2GG	2E	.	.
=96	=96	=96	=96
[0FF	0F	1d	1.a
.	.	[1c	.
.	.	.	2a
=97	=97	=97	=97
0FF]	[0cl	2c]	2.a
.	.	2B-y	.
.	.	.	4g
.	.	2A	2f
.	.	2A	2f
=	=	=	=
00C;	00c;]	00G;	00e;
=||	=||	=||	=||
*M2/1	*M2/1	*M2/1	*M2/1
*met(C|)	*met(C|)	*met(C|)	*met(C|)
!!section: Secunda pars: Parasti inconspectu meo
!!!OMD: Secunda pars: Parasti inconspectu meo
1F	0r	0r	0r
1F	.	.	.
=98	=98	=98	=98
1C	0c	0r	0r
[1F	.	.	.
=99	=99	=99	=99
2F]	0c	0r	0r
2E	.	.	.
2F	.	.	.
2C	.	.	.
=100	=100	=100	=100
2D	1F	0r	0r
2.F	.	.	.
.	[1c	.	.
4E	.	.	.
2C	.	.	.
=101	=101	=101	=101
1D	2c]	0r	0r
.	2B-y	.	.
1C	2c	.	.
.	2G	.	.
=102	=102	=102	=102
2.FF	2A	2r	0r
.	2.c	2F	.
4GG	.	.	.
4AA	.	2F	.
4BB-y	4B-y	.	.
2C	2G	2E	.
=103	=103	=103	=103
2FF	1A	1F	0r
1F	.	.	.
.	1G	1C	.
2E	.	.	.
=104	=104	=104	=104
[0F	1F	2.c	0r
.	.	4B-y	.
.	1c	4A	.
.	.	4G	.
.	.	[2A	.
=105	=105	=105	=105
1F]	1c	2A]	0r
.	.	4G	.
.	.	4F	.
1r	1B-y	1G	.
=106	=106	=106	=106
1F	1c	2.A	0r
.	.	4B-y	.
1F	1A	4c	.
.	.	4d	.
.	.	[2c	.
=107	=107	=107	=107
1E-X	2r	2c]	0r
.	2G	2B-y	.
1F	1c	2A	.
.	.	[2F	.
=108	=108	=108	=108
1D	2B-y	2F]	0r
.	2.A	1f	.
2r	.	.	.
.	8GL	.	.
.	8FJ	.	.
2C	2G	2e	.
=109	=109	=109	=109
1.F	2.A	2d	1r
.	.	2.c	.
.	4G	.	.
.	4A	.	1f
.	4B-y	4B-y	.
2F	[2c	[2A	.
=110	=110	=110	=110
1D	2c]	2A]	1f
.	2Bni	4G	.
.	.	4F	.
1C	1c	2G	1e
.	.	[2A	.
=111	=111	=111	=111
0r	2r	4A]	1f
.	.	4F	.
.	2F	1c	.
.	2F	.	1d
.	2G	2Bni	.
=112	=112	=112	=112
0r	2.A	2c	2r
.	.	2F	2c
.	4B-y	.	.
.	1c	2.F	[1f
.	.	4G	.
=113	=113	=113	=113
2r	2F	4A	2f]
.	.	4B-y	.
2FF	1A	1c	2f
2FF	.	.	1d
2GG	4G	2B-y	.
.	4F	.	.
=114	=114	=114	=114
2.AA	2E	1A	[0c
.	1F	.	.
4BB-y	.	.	.
1C	.	1G	.
.	2E	.	.
=115	=115	=115	=115
2FF	1F	1r	0c]
1F	.	.	.
.	2r	1A	.
4E	2F	.	.
4D	.	.	.
=116	=116	=116	=116
2E	2G	1c	0r
2F	2A	.	.
1G	2G	1B-y	.
.	[2d	.	.
=117	=117	=117	=117
1F	4d]	1A	1c
.	4c	.	.
.	1c	.	.
1r	.	2r	1f
.	2Bni	2d	.
=118	=118	=118	=118
0r	2.c	2c	1e
.	.	2A	.
.	4B-y	.	.
.	1G	2.B-y	1d
.	.	4A	.
=119	=119	=119	=119
0r	0r	2F	1a
.	.	2c	.
.	.	2d	1a
.	.	[2f	.
=120	=120	=120	=120
0r	0r	2f]	1g
.	.	2e	.
.	.	2f	[1f
.	.	[2B-y	.
=121	=121	=121	=121
0r	1d	2B-]	2f]
.	.	4A	2g
.	.	4G	.
.	2d	2F	2a
.	2c	2A	[2cc
=122	=122	=122	=122
0r	1d	1G	2cc]
.	.	.	2bni
.	1c	1r	2cc
.	.	.	[2a
=123	=123	=123	=123
1D	1F	0r	4a]
.	.	.	4g
.	.	.	1f
2D	[1A	.	.
2C	.	.	2e
=124	=124	=124	=124
1D	2A]	0r	1f
.	2B-y	.	.
1C	2.c	.	1r
.	8B-yL	.	.
.	8AJ	.	.
=125	=125	=125	=125
1C	1G	2r	0r
.	.	1c	.
[1D	1F	.	.
.	.	2B-y	.
=126	=126	=126	=126
2D]	0r	2A	1r
2E	.	2G	.
1F	.	1A	2r
.	.	.	[2f
=127	=127	=127	=127
1C	1r	1G	2f]
.	.	.	2e
2BB-y	2r	1r	2d
2AA	[2c	.	2c
=128	=128	=128	=128
1GG	2c]	1G	1d
.	2B-y	.	.
1C	2A	1E	[1c
.	2G	.	.
=129	=129	=129	=129
0r	1A	1F	1c]
.	1G	1C	[1e
=130	=130	=130	=130
1.C	2r	1.c	1e]
.	1G	.	.
.	.	.	1e
2C	2A	2c	.
=131	=131	=131	=131
1C	1G	1c	1e
1FF	1F	1c	1a
=132	=132	=132	=132
1.C	1.E	1c	1.g
.	.	1c	.
2C	2E	.	2g
=133	=133	=133	=133
0GG	0D	0B-y	1g
.	.	.	1g
=134	=134	=134	=134
0BB-y	1r	0d	[0f
.	1D	.	.
=135	=135	=135	=135
0FF	2.F	1c	0f]
.	4G	.	.
.	1A	2r	.
.	.	[2c	.
=136	=136	=136	=136
0r	2.G	2c]	2r
.	.	2B-y	1g
.	4F	.	.
.	4E	2.c	.
.	4D	.	.
.	2F	.	2a
.	.	4d	.
=137	=137	=137	=137
0r	1C	2e	2.g
.	.	2.c	.
.	.	.	4f
.	1r	.	4e
.	.	4B-y	4d
.	.	4A	[2f
.	.	4G	.
=138	=138	=138	=138
0r	1r	2F	2f]
.	.	1c	2e
.	2r	.	1d
.	[2G	2Bni	.
=139	=139	=139	=139
1C	2G]	1c	1c
.	2A	.	.
2BB-y	2.G	1r	1r
[2C	.	.	.
.	4F	.	.
=140	=140	=140	=140
2C]	4E	1r	0r
.	4D	.	.
4BB-y	1F	.	.
4AA	.	.	.
2BB-y	.	2r	.
2C	2E	[2c	.
=141	=141	=141	=141
1GG	1D	2c]	2r
.	.	2B-y	1g
2r	1C	2.c	.
[2C	.	.	2a
.	.	4d	.
=142	=142	=142	=142
2C]	2r	2e	2.g
2BB-y	1G	2d	.
.	.	.	4f
2C	.	[1c	4e
.	.	.	4d
2FF	2A	.	[2f
=143	=143	=143	=143
1.C	2.G	2c]	2f]
.	.	4B-y	4e
.	4F	4A	4d
.	4E	2G	2c
.	4D	.	.
4BB-y	[2F	[2B-y	[2d
4AA	.	.	.
=144	=144	=144	=144
2BB-y	2F]	4B-]	4d]
.	.	4A	4c
2C	2E	4G	1c
.	.	4F	.
1GG	1D	[1G	.
.	.	.	2Bni
=145	=145	=145	=145
[0C	1C	1G]	1c
.	1r	1E	1g
=146	=146	=146	=146
1C]	0r	2r	2a
.	.	1c	1g
1r	.	.	.
.	.	2d	2f
=147	=147	=147	=147
0r	0r	1c	2.e
.	.	.	4f
.	.	2B-y	2g
.	.	[2A	2c
=148	=148	=148	=148
0r	0r	4A]	2.cc
.	.	4B-y	.
.	.	2c	.
.	.	.	4b-y
.	.	2F	4a
.	.	.	4g
.	.	[2c	2a
=149	=149	=149	=149
0r	0r	2c]	2g
.	.	1d	1f
.	.	[2c	2e
=150	=150	=150	=150
1r	1G	2c]	1d
.	.	2Bni	.
2r	2A	1c	1c
[2C	[2G	.	.
=151	=151	=151	=151
2C]	2G]	1A	0r
2D	2F	.	.
1C	2.E	1r	.
.	4F	.	.
=152	=152	=152	=152
2BB-y	2G	0r	0r
2.AA	2C	.	.
.	2.c	.	.
4BB-y	.	.	.
2C	.	.	.
.	4B-y	.	.
=153	=153	=153	=153
2FF	4A	0r	0r
.	4G	.	.
1C	2A	.	.
.	2G	.	.
[2D	[2F	.	.
=154	=154	=154	=154
2D]	2F]	0r	0r
1C	2E	.	.
.	1D	.	.
2BBni	.	.	.
=155	=155	=155	=155
0C	0C	0e	1r
.	.	.	1g
=156	=156	=156	=156
1r	1r	1e	1g
1C	1c	1e	1g
=157	=157	=157	=157
1.F	1.c	1.f	1.a
2C	2c	2e	2g
=158	=158	=158	=158
1F	1c	2c	1a
.	.	2.f	.
1G	1B-y	.	1b-y
.	.	4e	.
.	.	4e	.
.	.	4d	.
=159	=159	=159	=159
1F	1c	1f	1.a
1F	1A	1c	.
.	.	.	2a
=160	=160	=160	=160
1.D	2.F	1f	1a
.	4G	.	.
.	2A	1d	2f
2BB-y	2B-y	.	[2g
=161	=161	=161	=161
1C	2A	1.e	4g]
.	.	.	4f
.	2.G	.	4e
.	.	.	4d
1AA	.	.	2c
.	4F#i	.	.
.	4F#i	2c	[2cc
.	4E	.	.
=162	=162	=162	=162
0GG	1G	2.d	2cc]
.	.	.	4bni
.	.	4e	4a
.	2r	1d	1bni
.	[2G	.	.
=163	=163	=163	=163
2.C	2G]	1r	0cc
.	2A	.	.
4D	.	.	.
2E	2G	2r	.
2F	[2c	2c	.
=164	=164	=164	=164
1D	4c]	2d	2r
.	4Bni	.	.
.	4Bni	2d	2f
.	4A	.	.
1C	1c	2e	2g
.	.	2c	2g
=165	=165	=165	=165
0r	2.F	1.f	2a
.	.	.	2f
.	4G	.	.
.	1A	.	1cc
.	.	2e	.
=166	=166	=166	=166
0r	0r	1d	2b-y
.	.	.	1a
.	.	2A	.
.	.	[2c	4g
.	.	.	4f
=167	=167	=167	=167
1r	0r	2c]	2e
.	.	4B-y	1f
.	.	4A	.
2r	.	1G	.
2C	.	.	2e
=168	=168	=168	=168
2D	2r	1F	1f
2D	2F	.	.
2E	2G	1r	1r
2C	2G	.	.
=169	=169	=169	=169
1.F	2A	2r	0r
.	2F	2A	.
.	1c	2A	.
2E	.	2G	.
=170	=170	=170	=170
2.D	2B-y	2d	0r
.	1A	2d	.
4C	.	.	.
2AA	.	2.c	.
[2C	4G	.	.
.	4F	4B-y	.
=171	=171	=171	=171
2C]	2E	2G	2r
4BB-y	1F	2c	2f
4AA	.	.	.
1GG	.	1B-y	2g
.	2E	.	2g
=172	=172	=172	=172
0FF	2.F	2A	2a
.	.	2.c	2f
.	4G	.	.
.	4A	.	1cc
.	4B-y	4B-y	.
.	4c	2A	.
.	4A	.	.
=173	=173	=173	=173
2r	2B-y	2G	2b-y
2.FF	1c	4F	1a
.	.	4G	.
.	.	4A	.
4GG	.	4B-y	.
4AA	4B-y	[2c	4g
4BB-y	4A	.	4f
=174	=174	=174	=174
2C	2G	2c]	2e
2D	2F	2B-y	1f
1C	1G	1c	.
.	.	.	2e
=175	=175	=175	=175
0FF	1F	2A	2f
.	.	2.c	2g
.	2r	.	4a
.	.	4B-y	4b-y
.	[2F	4A	[2cc
.	.	4G	.
=176	=176	=176	=176
2r	4F]	1F	4cc]
.	4G	.	4b-y
2.F	4A	.	4a
.	4B-y	.	4g
.	2c	2r	1a
4E	.	.	.
4D	[2d	[2F	.
4C	.	.	.
=177	=177	=177	=177
2BB-y	2d]	4F]	2b-y
.	.	4G	.
2.F	4c	4A	2a
.	4B-y	4B-y	.
.	2A	2c	2g
4E	.	.	.
4D	[2B-y	[2d	[2f
4C	.	.	.
=178	=178	=178	=178
2BB-y	4B-]	2d]	2f]
.	4A	.	.
2C	1G	1c	2e
1D	.	.	2.f
.	2F	2B-y	.
.	.	.	8eL
.	.	.	8dJ
=179	=179	=179	=179
[0C	1G	[0c	[0e
.	1A	.	.
=180	=180	=180	=180
0C;]	0G;	0c;]	0e;]
=181	=181	=181	=181
00FFl	00Fl	00Al	00fl
==	==	==	==
*-	*-	*-	*-
!!!system-decoration: [*]
!!!RDF**kern: i = editorial accidental
!!!RDF**kern: l = terminal long
!!!ENC: Benjamin Ory
!!!END: 2022/2/6
!!!EED: Benjamin Ory
!!!EEV: 2022/02/06
!!!YEC: Copyright 2022 Benjamin Ory, All Rights Reserved
!!!ONB: Translated from MusicXML on 2022/02/06
